packages/icons/src/button.svg

<svg width="15" height="15" viewBox="0 0 15 15" fill="none" xmlns="http://www.w3.org/2000/svg">
  <path
    fill-rule="evenodd"
    clip-rule="evenodd"
    d="M2 5H13C13.5523 5 14 5.44772 14 6V9C14 9.55228 13.5523 10 13 10H2C1.44772 10 1 9.55228 1 9V6C1 5.44772 1.44772 5 2 5ZM0 6C0 4.89543 0.895431 4 2 4H13C14.1046 4 15 4.89543 15 6V9C15 10.1046 14.1046 11 13 11H2C0.89543 11 0 10.1046 0 9V6ZM4.5 6.75C4.08579 6.75 3.75 7.08579 3.75 7.5C3.75 7.91421 4.08579 8.25 4.5 8.25C4.91421 8.25 5.25 7.91421 5.25 7.5C5.25 7.08579 4.91421 6.75 4.5 6.75ZM6.75 7.5C6.75 7.08579 7.08579 6.75 7.5 6.75C7.91421 6.75 8.25 7.08579 8.25 7.5C8.25 7.91421 7.91421 8.25 7.5 8.25C7.08579 8.25 6.75 7.91421 6.75 7.5ZM10.5 6.75C10.0858 6.75 9.75 7.08579 9.75 7.5C9.75 7.91421 10.0858 8.25 10.5 8.25C10.9142 8.25 11.25 7.91421 11.25 7.5C11.25 7.08579 10.9142 6.75 10.5 6.75Z"
    fill="currentColor"
  />
</svg>

<svg xmlns="http://www.w3.org/2000/svg" width="15" height="15" fill="none"><path fill="currentColor" fill-rule="evenodd" d="M2 5h11a1 1 0 0 1 1 1v3a1 1 0 0 1-1 1H2a1 1 0 0 1-1-1V6a1 1 0 0 1 1-1M0 6a2 2 0 0 1 2-2h11a2 2 0 0 1 2 2v3a2 2 0 0 1-2 2H2a2 2 0 0 1-2-2zm4.5.75a.75.75 0 1 0 0 1.5.75.75 0 0 0 0-1.5m2.25.75a.75.75 0 1 1 1.5 0 .75.75 0 0 1-1.5 0m3.75-.75a.75.75 0 1 0 0 1.5.75.75 0 0 0 0-1.5" clip-rule="evenodd"/></svg>
